X:47
T:Will Rogers. JJo8.047
%%VWML:JohnsonVol8-2184-p24-0
F:http://www.vwml.org/record/JohnsonVol8/2184/p24
Z:Transcribed by Simon Furey and Lewis Jones
Z:vmp.Simon Wilson 2013 www.village-music-project.org.uk
Z:Dance added by John Chambers 2017
M:2/4
L:1/8
%Q:1/2=90
K:D
|: g |\
f2d>f | e2A>G | F>A f>d | e2f2 |\
((3gag) bg | ((3fgf) ag | (f>d) (e>c) | d2D :|
|: G |\
((3FGF) A>F | (BG) (AF) | D>g f>d | e2E>G |\
((3FGF) AF | (B>d) (Ag) | (f>d) (e>f)d2D :|
W: Foot it and turn your Partner
W:.||. Cast off two Cu .|. Lead up
W:to the Top Cast off .||. hands 4
W:at Bottom quite round :||:
W:
T:Trip to Ingestree. JJo8.048, A
B:J.Johnson Choice Collection Vol 8 1758
Z:vmp.Simon Wilson 2013 www.village-music-project.org.uk
Z:Dance added by John Chambers 2017
M:9/8
L:1/8
%Q:3/8=120
K:G
|:\
G3 B2c (dB)d | G3 (B/c/d)B (AF)A |\
G3 B2c (dB)d | efg dBG AEA :|
|:\
(ge)g gag fed | geg bgb afd |\
(ge)g gag fed | (e/f/g)e dBG AFA :|
W: Turn your Partner with Right hand and
W:cast off .|. the same with Left hand cast
W:up again .||. Cross over half figure .||.
W:Lead up to the Top cast off :||:
W:
